images/youtube.svg

<svg width="24" height="24" viewBox="0 0 24 24" fill="none" xmlns="http://www.w3.org/2000/svg">
<path d="M12 3.5C13.8097 3.5 15.545 3.67899 17.1533 4.00684C19.1622 4.41635 20.1664 4.62131 21.083 5.7998C21.9995 6.97823 22 8.33067 22 11.0361V12.9639C22 15.6694 21.9995 17.0218 21.083 18.2002C20.1664 19.3787 19.1622 19.5837 17.1533 19.9932C15.545 20.321 13.8097 20.5 12 20.5C10.1903 20.5 8.45499 20.321 6.84668 19.9932C4.83778 19.5837 3.8336 19.3787 2.91699 18.2002C2.00048 17.0218 2 15.6694 2 12.9639V11.0361C2 8.33067 2.0005 6.97823 2.91699 5.7998C3.8336 4.62131 4.83778 4.41635 6.84668 4.00684C8.45499 3.679 10.1903 3.5 12 3.5ZM13.4453 9.77539C11.7277 8.82897 10.8684 8.35585 10.1729 8.53809C9.93725 8.59984 9.7203 8.70913 9.53809 8.85645C9.00023 9.29143 9 10.1942 9 12C9 13.8058 9.00011 14.7087 9.53809 15.1436C9.72028 15.2908 9.93727 15.3991 10.1729 15.4609C10.8685 15.6432 11.7276 15.17 13.4453 14.2236C15.0242 13.3535 15.8135 12.9182 15.9619 12.3125C16.0124 12.1064 16.0124 11.8927 15.9619 11.6865C15.8132 11.081 15.024 10.6454 13.4453 9.77539Z" fill="#AEAEAE"/>
</svg>

<svg xmlns="http://www.w3.org/2000/svg" width="24" height="24" fill="none"><path fill="#AEAEAE" d="M12 3.5c1.81 0 3.545.179 5.153.507 2.01.41 3.013.614 3.93 1.793S22 8.33 22 11.036v1.928c0 2.705 0 4.058-.917 5.236-.917 1.179-1.92 1.384-3.93 1.793A26 26 0 0 1 12 20.5c-1.81 0-3.545-.179-5.153-.507-2.01-.41-3.013-.614-3.93-1.793S2 15.67 2 12.964v-1.928c0-2.705 0-4.058.917-5.236.917-1.179 1.92-1.384 3.93-1.793A26 26 0 0 1 12 3.5m1.445 6.275c-1.717-.946-2.577-1.42-3.272-1.237a1.7 1.7 0 0 0-.635.318C9 9.291 9 10.194 9 12s0 2.709.538 3.144c.182.147.4.255.635.317.695.182 1.555-.291 3.272-1.237 1.58-.87 2.368-1.306 2.517-1.912.05-.206.05-.42 0-.625-.149-.606-.938-1.042-2.517-1.912"/></svg>
